public/img/svg/github.svg

<svg width="48" height="48" viewBox="0 0 48 48" fill="none" xmlns="http://www.w3.org/2000/svg">
<path d="M24 10.7773C16.6362 10.7773 10.6666 16.7469 10.6666 24.1107C10.6666 30.008 14.4995 35.0023 19.8068 36.7611C20.453 36.8619 20.7 36.4728 20.7 36.1277C20.7 35.811 20.6833 34.7611 20.6833 33.6444C17.3333 34.2611 16.4666 32.8277 16.2 32.0777C15.904 31.3483 15.4349 30.702 14.8333 30.1944C14.3667 29.9444 13.7 29.3277 14.8166 29.311C15.6819 29.4049 16.4471 29.915 16.8667 30.6777C16.868 30.6801 16.8693 30.6824 16.8706 30.6847C17.64 32.0578 19.3768 32.5471 20.75 31.7777C20.8077 31.0998 21.1098 30.4661 21.6 29.9944C18.6333 29.661 15.5333 28.511 15.5333 23.411C15.5145 22.0858 16.0035 20.8038 16.8999 19.8277C16.4923 18.6759 16.54 17.412 17.0333 16.2943C17.0333 16.2943 18.1499 15.9443 20.7 17.661C22.8817 17.0609 25.1849 17.0609 27.3667 17.661C29.9166 15.9276 31.0333 16.2943 31.0333 16.2943C31.5266 17.412 31.5743 18.6759 31.1666 19.8277C32.0657 20.8021 32.5551 22.0853 32.5333 23.411C32.5333 28.5277 29.4166 29.661 26.45 29.9944C27.0939 30.6469 27.4223 31.5471 27.35 32.461C27.35 34.2444 27.3333 35.6777 27.3333 36.1277C27.3324 36.1987 27.343 36.2694 27.3647 36.3371C27.4756 36.6822 27.8449 36.872 28.1901 36.7621C33.499 35.0042 37.3333 30.0091 37.3333 24.1107C37.3333 16.7469 31.3637 10.7773 24 10.7773Z" fill="white"/>
</svg>

<svg xmlns="http://www.w3.org/2000/svg" width="48" height="48" fill="none"><path fill="#fff" d="M24 10.777c-7.364 0-13.333 5.97-13.333 13.334 0 5.897 3.832 10.891 9.14 12.65.646.1.893-.288.893-.633 0-.317-.017-1.367-.017-2.484-3.35.617-4.216-.816-4.483-1.566a4.85 4.85 0 0 0-1.367-1.884c-.466-.25-1.133-.866-.016-.883a2.669 2.669 0 0 1 2.054 1.374 2.85 2.85 0 0 0 3.879 1.093c.058-.678.36-1.312.85-1.784-2.967-.333-6.067-1.483-6.067-6.583a5.189 5.189 0 0 1 1.367-3.583 4.792 4.792 0 0 1 .133-3.534s1.117-.35 3.667 1.367c2.182-.6 4.485-.6 6.667 0 2.55-1.733 3.666-1.367 3.666-1.367a4.791 4.791 0 0 1 .134 3.534 5.159 5.159 0 0 1 1.366 3.583c0 5.117-3.116 6.25-6.083 6.583.644.653.972 1.553.9 2.467 0 1.783-.017 3.217-.017 3.667a.659.659 0 0 0 .857.634c5.309-1.758 9.143-6.753 9.143-12.651 0-7.364-5.97-13.334-13.333-13.334Z"/></svg>
